X:1
T:Ethelbert, 12.11.12.11
T:Ethelbert, 12.11.12.11
T:Ethelbert William Bullinger (1837-1913)
T:Public Domain Courtesy of the Cyber Hymnal™
C:Ethelbert William Bullinger (1837-1913)
Z:Public Domain
Z:Courtesy of the Cyber Hymnal™
%%score ( 1 2 ) ( 3 4 )
L:1/8
Q:1/4=130
M:4/4
K:Bb
V:1 treble 
V:2 treble 
V:3 bass 
V:4 bass 
V:1
 [DF]2 | [DF]4 [B,D]2 [CE]2 | [DF]4 [DB]2 [DB]2 | [Ec]4 [DB]2 [CA]2 | [EA]4 [DB]2 [B,D]2 | %5
 [Fe]4 [Fd]2 [Fc]2 | [Fd]4 [Fc]2 [GB]2 | [FA]4 [=EG]3 F F6 | FF x6 | [EA]4 [EG]2 [EF]2 | %10
 [DF]4 [DB]2 [DB]2 | [Ec]4 [DB]2 [CA]2 | [DB]4 [Fd]2 [Fd][Fd] | [Fd]4 [FG]2 [Fd]2 | %14
 d2 c2 [EB]2 [^CG]2 | F4 [=EG]2 [_EA]2 | [DB]6 |] %17
V:2
 x2 | x8 | x8 | x8 | x8 | x8 | x8 | x7 F F6 | FF x6 | x8 | x8 | x8 | x8 | x8 | E4 x4 | D2 E2 x4 | %16
 x6 |] %17
V:3
 [B,,F,]2 | [B,,F,]4 [B,,F,]2 [B,,F,]2 | [B,,F,]4 [B,,F,]2 [B,,B,]2 | [F,A,]4 [F,B,]2 [F,C]2 | %4
 [F,C]4 B,2 B,2 | [A,C]4 B,2 [F,A,]2 | B,4 [A,C]2 [B,D]2 | C4 [C,B,]3 [F,A,] x6 | %8
 [F,A,]6 [F,A,][F,A,] | [F,C]4 [F,B,]2 [F,A,]2 | [B,,B,]4 [B,,F,]2 [B,,B,]2 | %11
 [F,A,]4 [F,B,]2 [F,C]2 | B,4 B,2 B,B, | [G,=B,]4 [G,B,]2 [G,B,]2 | [C,C]4 [E,G,]2 [=E,B,]2 | %15
 [F,D]4 [F,_D]2 [F,C]2 | [B,,B,]6 |] %17
V:4
 x2 | x8 | x8 | x8 | x4 B,2 B,2 | x4 B,2 x2 | (B,,2 B,2) x4 | C4 x10 | x8 | x8 | x8 | x8 | %12
 B,4 B,2 B,B, | x8 | x8 | x8 | x6 |] %17

